X:12516
T:Parrot Paradise
C: Sherilyn Urben, Copyright 2016
M:4/4
L:1/8
Q:"H=112, Contra dance style"
Z: Contributed 2016-01-26 23:12:46 by S U surben@llschools.net
K:G
  "G"D2GFG2GA|"em"B2cBA2G2|"D7"D2ABA2AB|  "Am"c2dcB2A2|
"G"D2GFG2GA|"em"B2cBAG z G|"A"A2A2A2B^c || 1 "D"d3c BA z2 :|| 2 "D"d6 z d|
|:"Am7"e2f2 gfed|"C7"c2d2edcb,|"F/Eb"A2B2 cBAG|"dm F naturals" nFEDE DEnFG|
"dm"A2D2 "Bb"d2 z d|"G" d2D2 "D7"d2 z d|"F7/Eb"ABAB "C"cddc|"D7"ddef "G"g2 z d :||

